!!!OTL: 1688. Do brevitate [Carmen amobæum].
!!!ODT: 1717
!!!ARE: Europa, Mitteleuropa, Deutschland
!!!SCT: E1688
!!!TXL: @@LAT
!!!YEM: Copyright 1995, estate of Helmut Schaffrath.
**kern	**text
*ICvox	*
*M3/4	*
*k[]	*
*C:	*
=1	=1
!LO:TX:a:t=Feierlich.	!
!LO:TX:a:t=Mel. vor 1717 entſtanden.	!
{8.cc	1._Gau-
16g	-de-
4g	-a-
4cc	-mus
=2	=2
8.a	i-
16a	-gi-
2a}	-tur,
=3	=3
{8b	ju-
8cc	-ve-
4dd	-nes
4b	dum
=4	=4
(8ccL	su-
8eeJ)	.
4cc	-mus;
4r}	.
=5||	=5||
{8.b	post
16cc	jo-
4dd	-cun-
4dd	-dam
=6	=6
8ee	Ju-
8cc	-ven-
4dd	-tu-
4dd}	-tem,
=7	=7
{8.b	post
16cc	mo-
4dd	-le-
4dd	-stam
=8	=8
8ee	se-
8cc	-nec-
4dd	-tu-
4dd}	-tem
=9	=9
{8.cc	nos
16b	ha-
4a	-be-
8ff	.
8dd	-bit
=10	=10
(4cc	hu-
4b)	.
4cc}	-mus,
=11	=11
{8.cc	nos
16b	ha-
4a	-be-
8ff	.
8dd	-bit
=12	=12
(4cc	hu-
4b)	.
4cc}	-mus.
==	==
!!!AGN: Staende -, Studenten - Lied
!!!ONB: ESAC (Essen Associative Code) Database: ERK3
!!!AMT: simple triple
!!!AIN: vox
!!!EED: Helmut Schaffrath
!!!EEV: 1.0
!!!GTL: Staendelieder (Berufslieder). 10. Einige Studentenlieder.
!!!URL-scan: https://rosdok.uni-rostock.de/mcrviewer/recordIdentifier/rosdok_ppn745177999/iview2/phys_0492.iview2?x=-449.8344612962892&y=1440.6619268669747&scale=0.47549036216460333&rotation=0&layout=singlePageLayout
!!!ENC: Anna Maria Matuszewska
!!!EEV: 2025/08/01
*-	*-
